X:13
T:Frisky Molly's Delight
M:6/8
L:1/8
B:Thompson's Compleat Collection of 200 Favourite Country Dances, vol. 1 (London, 1757)
Z:Transcribed and edited by Fynnian Titford-Mock, 2007
Z:abc's:AK/Fiddler's Companion
K:F
c/B/|AFA cAc|fcf agf|efg ag^f|g3 c2B|AFA cAc|fcf agf|efg efd|(c3 c2):|
|:c/B|AFA edc|dfe dcB|dcB FBA|B3 B,2 d/c/|=BGB fed|ege dcB
|_edc Gc=B|c3 C2a|bg/a/b afa|ge/f/g fdf|egb abg|(f3 f2):|

